svg/emoji_u1f53d.svg

<svg enable-background="new 0 0 128 128" viewBox="0 0 128 128" xmlns="http://www.w3.org/2000/svg"><linearGradient id="a" x1="64" x2="64" y1="4.25" y2="123.91" gradientUnits="userSpaceOnUse"><stop stop-color="#FFAB40" offset="0"/><stop stop-color="#FF6D00" offset="1"/></linearGradient><path d="m116 124h-104c-4.42 0-8-3.58-8-8v-104c0-4.42 3.58-8 8-8h104c4.42 0 8 3.58 8 8v104c0 4.42-3.58 8-8 8z" fill="url(#a)"/><g opacity=".2"><path d="m116 7c2.76 0 5 2.24 5 5v104c0 2.76-2.24 5-5 5h-104c-2.76 0-5-2.24-5-5v-104c0-2.76 2.24-5 5-5h104m0-3h-104c-4.42 0-8 3.58-8 8v104c0 4.42 3.58 8 8 8h104c4.42 0 8-3.58 8-8v-104c0-4.42-3.58-8-8-8z" fill="#424242"/></g><g opacity=".2"><path d="m93.49 39.71c2.05 0 3.33 2.21 2.32 3.99l-29.33 50.96c-0.51 0.9-1.41 1.34-2.32 1.34s-1.8-0.45-2.32-1.34l-29.32-50.96c-1.02-1.78 0.27-3.99 2.32-3.99h58.65m0-3h-58.66c-2.04 0-3.88 1.06-4.9 2.82-1.03 1.77-1.03 3.88-0.02 5.66l29.33 50.96c1.02 1.78 2.86 2.85 4.92 2.85s3.9-1.07 4.92-2.86l29.33-50.94c1.02-1.78 1.01-3.9-0.01-5.66-1.03-1.77-2.86-2.83-4.91-2.83z" fill="#424242"/></g><path d="M64.16,39.71H34.83c-2.05,0-3.33,2.21-2.32,3.99l29.33,50.95c1.02,1.79,3.61,1.79,4.63,0L95.81,43.7 c1.02-1.78-0.27-3.99-2.32-3.99H64.16z" fill="#FAFAFA"/></svg>

<svg width="128" height="128" style="enable-background:new 0 0 128 128;" xmlns="http://www.w3.org/2000/svg" xmlns:xlink="http://www.w3.org/1999/xlink">
  <g>
    <linearGradient id="SVGID_1_" gradientUnits="userSpaceOnUse" x1="64" x2="64" y1="4.25" y2="123.9133">
      <stop offset="0" style="stop-color:#FFAB40"/>
      <stop offset="1" style="stop-color:#FF6D00"/>
    </linearGradient>
    <path d="M116,124H12c-4.42,0-8-3.58-8-8V12c0-4.42,3.58-8,8-8h104c4.42,0,8,3.58,8,8v104 C124,120.42,120.42,124,116,124z" style="fill:url(#SVGID_1_);"/>
    <g style="opacity:0.2;">
      <path d="M116,7c2.76,0,5,2.24,5,5v104c0,2.76-2.24,5-5,5H12c-2.76,0-5-2.24-5-5V12c0-2.76,2.24-5,5-5H116 M116,4H12c-4.42,0-8,3.58-8,8v104c0,4.42,3.58,8,8,8h104c4.42,0,8-3.58,8-8V12C124,7.58,120.42,4,116,4L116,4z" style="fill:#424242;"/>
    </g>
    <g style="opacity:0.2;">
      <path d="M93.49,39.71c2.05,0,3.33,2.21,2.32,3.99L66.48,94.66c-0.51,0.9-1.41,1.34-2.32,1.34 s-1.8-0.45-2.32-1.34L32.52,43.7c-1.02-1.78,0.27-3.99,2.32-3.99h29.33H93.49 M93.49,36.71H64.16H34.83 c-2.04,0-3.88,1.06-4.9,2.82c-1.03,1.77-1.03,3.88-0.02,5.66l29.33,50.96C60.26,97.93,62.1,99,64.16,99c2.06,0,3.9-1.07,4.92-2.86 L98.41,45.2c1.02-1.78,1.01-3.9-0.01-5.66C97.37,37.77,95.54,36.71,93.49,36.71L93.49,36.71z" style="fill:#424242;"/>
    </g>
    <path d="M64.16,39.71H34.83c-2.05,0-3.33,2.21-2.32,3.99l29.33,50.95c1.02,1.79,3.61,1.79,4.63,0L95.81,43.7 c1.02-1.78-0.27-3.99-2.32-3.99H64.16z" style="fill:#FAFAFA;"/>
  </g>
</svg>
